img/step__04.svg

<svg width="47" height="51" viewBox="0 0 47 51" fill="none" xmlns="http://www.w3.org/2000/svg">
<path d="M23.715 29.3213C15.7588 29.3213 9.30878 22.8671 9.30878 14.9109C9.30878 6.95672 15.7588 0.504639 23.715 0.504639C31.6713 0.504639 38.1234 6.95672 38.1234 14.9109C38.1234 22.8671 31.6713 29.3213 23.715 29.3213ZM23.715 2.56505C16.8963 2.56505 11.3671 8.09214 11.3671 14.913C11.3671 21.7338 16.8963 27.263 23.715 27.263C30.5338 27.263 36.065 21.7338 36.065 14.913C36.065 8.09214 30.5338 2.56505 23.715 2.56505Z" fill="#010101"/>
<path d="M23.4546 35.4962C18.715 35.5004 14.0629 34.2254 9.99414 31.79C9.52123 31.4754 9.39623 30.84 9.71289 30.365C10.0066 29.9275 10.5837 29.7837 11.0504 30.0296C18.69 34.5858 28.215 34.5858 35.8566 30.0296C36.3275 29.7108 36.9691 29.8379 37.2816 30.3129C37.6004 30.7837 37.4775 31.4212 37.0025 31.7421C36.9733 31.7629 36.9441 31.7796 36.9171 31.79C32.8462 34.2254 28.1962 35.5004 23.4546 35.4962Z" fill="#010101"/>
<path d="M36.9921 30.1108C36.7462 30.7691 36.4462 31.4129 36.1087 32.0212C41.0817 35.7712 44.3921 41.6649 44.7025 48.3462H2.21708C2.52541 41.6295 5.8525 35.7108 10.8546 31.9608C10.5212 31.3524 10.2337 30.7254 9.99 30.0649C4.0275 34.3608 0.129578 41.4233 0.129578 49.3795C0.129578 49.9441 0.592078 50.4066 1.15874 50.4066H45.7525C46.3192 50.4066 46.7796 49.942 46.7796 49.3795C46.7796 41.4441 42.9129 34.4129 36.9921 30.1108Z" fill="#010101"/>
<path d="M36.3485 41.3637C36.3485 43.4641 34.6458 45.1667 32.5455 45.1667C30.4451 45.1667 28.7424 43.4641 28.7424 41.3637C28.7424 39.2633 30.4451 37.5607 32.5455 37.5607C34.6458 37.5607 36.3485 39.2633 36.3485 41.3637Z" fill="white" stroke="#FF2B00" stroke-width="3"/>
</svg>

<svg width="47" height="51" fill="none" xmlns="http://www.w3.org/2000/svg"><path d="M23.715 29.321c-7.956 0-14.406-6.454-14.406-14.41 0-7.954 6.45-14.406 14.406-14.406S38.123 6.957 38.123 14.91c0 7.956-6.452 14.41-14.408 14.41zm0-26.756c-6.819 0-12.348 5.527-12.348 12.348 0 6.82 5.53 12.35 12.348 12.35 6.819 0 12.35-5.53 12.35-12.35 0-6.82-5.531-12.348-12.35-12.348zm-.26 32.931a26.154 26.154 0 01-13.46-3.706 1.024 1.024 0 01-.282-1.425 1.03 1.03 0 011.337-.335 24.218 24.218 0 0024.807 0 1.021 1.021 0 011.425.283c.318.47.196 1.108-.28 1.43a.4.4 0 01-.085.047 26.162 26.162 0 01-13.462 3.706z" fill="#010101"/><path d="M36.992 30.11a14.2 14.2 0 01-.883 1.911 21.685 21.685 0 018.593 16.325H2.218a21.692 21.692 0 018.638-16.385 14.04 14.04 0 01-.865-1.896A23.776 23.776 0 00.13 49.379a1.03 1.03 0 001.029 1.028h44.593a1.03 1.03 0 001.028-1.027 23.776 23.776 0 00-9.788-19.27z" fill="#010101"/><path d="M36.349 41.364a3.803 3.803 0 11-7.606 0 3.803 3.803 0 017.606 0z" fill="#fff" stroke="#FF2B00" stroke-width="3"/></svg>
